svg/mfixx/mobilephone-broadcast.svg

<svg version="1.1" xmlns="http://www.w3.org/2000/svg" xmlns:xlink="http://www.w3.org/1999/xlink" x="0px" y="0px" width="326px" height="512px"><path d="M157.7416992,367.6936035c0,8.1000977-6.6357269,14.7665405-14.7358093,14.7665405H68.7022247c-8.1666489,0-14.7665253-6.6664429-14.7665253-14.7665405V280.292572c0-8.166626,6.5998764-14.76651,14.7665253-14.76651h74.3036652c8.1000824,0,14.7358093,6.599884,14.7358093,14.76651V367.6936035z M307.8082581,162.95401C307.6085815,82.9004059,242.9410553,18.2175064,162.8720856,18.048542C82.8696823,17.8797169,18.1355839,82.9004059,17.9358978,162.95401C17.9061298,174.8881531,0.5833333,175.125,0,162.95401C0,73.0185089,72.9365845,0,162.8720856,0c90.0071716,0,162.974472,73.0185089,162.974472,162.95401C325.4686279,174.7140503,308.6290283,175.2753601,307.8082581,162.95401z M46.7009201,162.95401c0-64.1196823,52.0002823-116.0687561,116.1711655-116.2530823c64.2067108-0.1844254,116.1711578,52.1333961,116.1711578,116.2530823c-0.3338013,11.5416107-16.9337158,12.5573425-18.0024414,0c0-54.2687531-43.9002075-98.0355759-98.1687164-98.0867844c-54.2019424-0.0511398-98.1021347,43.8182755-98.2045441,98.0867844C63.8644485,175.238678,47.1773529,174.615509,46.7009201,162.95401z M220.2741241,162.95401c-0.0716858-31.6988678-25.7031708-57.3201218-57.4020386-57.4020462c-31.632309-0.0817566-57.3713226,25.7031784-57.4327698,57.4020462c-0.5439529,12.2687683-17.8168411,11.6508331-18.0024567,0c0-41.7036438,33.8032608-75.3840103,75.4352264-75.4505768s75.3328094,33.7520599,75.4352112,75.4505768C237.7686005,174.9612885,220.9279022,174.9025116,220.2741241,162.95401z M168.9394531,235.3068848v-52.9546509c6.5826416-4.5980225,9.2374268-13.9302979,4.4974365-21.5593262c-6.4639282-10.4035645-21.8656616-9.8954468-27.6565552,0.9124146c-4.0423584,7.5443726-1.2998657,16.1877441,4.8904419,20.5856323v52.5960693H48.5032349c-8.1000977,0-14.7665405,6.5999146-14.7665405,14.720459v247.6567383C33.7366943,505.4359741,40.4031372,512,48.5032349,512h117.0722656c8.1307983,0,14.7665405-6.5640259,14.7665405-14.7357788V249.6074829C180.342041,242.6594238,175.4727783,236.8582764,168.9394531,235.3068848z"/></svg>

<svg xmlns="http://www.w3.org/2000/svg" width="326" height="512"><path d="M157.742 367.694c0 8.1-6.636 14.766-14.736 14.766H68.702c-8.166 0-14.766-6.666-14.766-14.766v-87.401c0-8.167 6.6-14.767 14.766-14.767h74.304c8.1 0 14.736 6.6 14.736 14.767v87.4zm150.066-204.74c-.2-80.054-64.867-144.736-144.936-144.905C82.87 17.879 18.136 82.9 17.936 162.954c-.03 11.934-17.353 12.171-17.936 0C0 73.019 72.937 0 162.872 0c90.007 0 162.975 73.019 162.975 162.954-.378 11.76-17.218 12.321-18.039 0zm-261.107 0c0-64.12 52-116.069 116.171-116.253 64.207-.184 116.171 52.133 116.171 116.253-.334 11.542-16.933 12.557-18.002 0 0-54.269-43.9-98.036-98.169-98.087-54.202-.05-98.102 43.819-98.204 98.087-.804 12.285-17.49 11.662-17.967 0zm173.573 0c-.072-31.699-25.703-57.32-57.402-57.402-31.632-.082-57.371 25.703-57.433 57.402-.544 12.269-17.817 11.65-18.002 0 0-41.704 33.803-75.384 75.435-75.45s75.333 33.751 75.435 75.45c-.538 12.007-17.38 11.949-18.033 0zm-51.335 72.353v-52.955c6.583-4.598 9.238-13.93 4.498-21.56-6.464-10.403-21.866-9.895-27.657.913-4.042 7.545-1.3 16.188 4.89 20.586v52.596H48.504c-8.1 0-14.766 6.6-14.766 14.72v247.657c0 8.172 6.666 14.736 14.766 14.736h117.073c8.13 0 14.766-6.564 14.766-14.736V249.607c0-6.948-4.87-12.749-11.403-14.3z"/></svg>
